X:1
T:Title
%%score { ( 1 3 ) | ( 2 4 5 ) }
L:1/8
M:6/8
K:Eb
V:1 treble nm="Grand Piano"
V:3 treble 
V:2 bass 
V:4 bass 
V:5 bass 
V:1
 z3 z2[Q:1/4=87] B, | G>GG [DF]E[DF] | G<.B.g b2 B | c>Ac edc |[M:5/8] B3 z2 |[M:1/8] B, | %6
[M:3/4] G>G G[DF] E[DF] | G<.B .g b2 B | z2 z2 z c |[M:5/8] B2 z z2 |[M:1/8] B |[M:3/4] B4 =AB | %12
 [EG]4 z2 | c4 Ae | B6 | [GB]>G c[GB] z [B,DF] | [EG]6 | [GB]>G c[GB] G[B,DA] | [DF]6 | [Ge]4 z2 | %20
 [GB]4 z2 | .[B,EG]2 E/F/G GF |[M:5/8] E-E- E3 |] %23
V:2
 z3 z2 [E,G,] | [E,B,E]>[E,B,E][E,B,E] [B,,A,][B,,G,][B,,A,] | %2
 [E,B,E]/[E,G,E]/- [E,G,E]2- [E,G,E] z [E,G,E] | [A,E]>[A,CE][A,E] [A,CE][A,B,E][A,E] | %4
[M:5/8] [E,G,E]3 z2 |[M:1/8] [F,A,] |[M:3/4] [E,B,E]>[E,B,E] [E,B,E][B,,A,] [B,,G,][B,,A,] | %7
 [E,B,E]<[E,G,E]- [E,G,E]2 z [E,B,E] | [F,B,E]>[F,=A,E] [F,A,E][F,A,F] [F,B,F].[F,A,F] | %9
[M:5/8] z z/[K:treble] =A/ z/ c/ B2 |[M:1/8] G |[M:3/4] G4 _G=G | E,>E, E, B,2[K:treble] G | %13
 A4 C[K:bass]E | [E,G,]2 z2 z2 | z z/[K:treble] E/ ._G2[K:bass] EB,, | E,>E, E, E,2 B,, | %17
 z z/[K:treble] E/ ._G2[K:bass] EF, | B,,2 B,, B,,2 A | [E,B,]>E, .E,2 CE, | %20
 E,>E, E, [E,B,]2 [C,=A,] | .B,,2 C/=B,/_B, B,A, |[M:5/8] [E,G,B,]>[E,G,][E,A,] [E,G,]2 |] %23
V:3
 x6 | x6 | z z/ B3/2- B z z | x6 |[M:5/8] x5 |[M:1/8] x |[M:3/4] x6 | z z/ B/- B2 z2 | %8
 G>F Fe .d>E |[M:5/8] [B,D]3 z2 |[M:1/8] x |[M:3/4] x6 | B,>B, B, E2 B | x6 | %14
 z z/ G,/ G, G,2 [B,AB] | x6 | B,>B, B, B,2 [B,AB] | x6 | B,2 B, B,2 B | z z/ B,/ B,B, [Bd][DAc] | %20
 E>E E [EG]2 [Ee] | x6 |[M:5/8] z z/ B,/C B,2 |] %23
V:4
 x6 | x6 | x6 | x6 |[M:5/8] x5 |[M:1/8] x |[M:3/4] x6 | x6 | x6 |[M:5/8] z2[K:treble] B z2 | %10
[M:1/8] x |[M:3/4] x6 | z2 z [E,G,] z2[K:treble] | x5[K:bass] x | E->[E,E-] [E,E-] [E,E]2 B,, | %15
 [E,B,]3[K:treble][K:bass] .[E,G,]3 | x6 | [E,B,]3[K:treble][K:bass] .[E,B,]3 | x6 | z2 z .E,3 | %20
 x6 | x6 |[M:5/8] x5 |] %23
V:5
 x6 | x6 | x6 | x6 |[M:5/8] x5 |[M:1/8] x |[M:3/4] x6 | x6 | x6 |[M:5/8] B,,3[K:treble] z2 | %10
[M:1/8] x |[M:3/4] x6 | x5[K:treble] x | x5[K:bass] x | x6 | x3/2[K:treble] x3/2[K:bass] x3 | x6 | %17
 x3/2[K:treble] x3/2[K:bass] x3 | x6 | x6 | x6 | x6 |[M:5/8] x5 |] %23

